docs/img/svgicons/media/telegram.svg

<svg width="412" height="344" viewBox="0 0 412 344" fill="none" xmlns="http://www.w3.org/2000/svg">
<path d="M39.5994 151.821C39.5994 151.821 207.477 83.1339 265.7 58.9491C288.018 49.2752 363.708 18.3172 363.708 18.3172C363.708 18.3172 398.642 4.77581 395.731 37.665C394.759 51.209 386.996 98.6116 379.232 149.884C367.589 222.441 354.973 301.766 354.973 301.766C354.973 301.766 353.034 324.017 336.538 327.887C320.04 331.757 292.87 314.343 288.018 310.473C284.137 307.57 215.24 264.037 190.012 242.756C183.218 236.952 175.455 225.342 190.981 211.798C225.914 179.875 267.641 140.21 292.87 115.059C304.513 103.449 316.16 76.3606 267.641 109.252C198.744 156.655 130.817 201.157 130.817 201.157C130.817 201.157 115.293 210.831 86.1813 202.124C57.0699 193.417 23.1061 181.809 23.1061 181.809C23.1061 181.809 -0.18107 167.296 39.6045 151.821H39.5994Z" stroke="#731C00" stroke-width="30.7759"/>
</svg>

<svg width="412" height="344" fill="none" xmlns="http://www.w3.org/2000/svg"><path d="M39.6 151.821s167.877-68.687 226.1-92.872c22.318-9.674 98.008-40.632 98.008-40.632s34.934-13.541 32.023 19.348c-.972 13.544-8.735 60.947-16.499 112.219-11.643 72.557-24.259 151.882-24.259 151.882s-1.939 22.251-18.435 26.121c-16.498 3.87-43.668-13.544-48.52-17.414-3.881-2.903-72.778-46.436-98.006-67.717-6.794-5.804-14.557-17.414.969-30.958 34.933-31.923 76.66-71.588 101.889-96.739 11.643-11.61 23.29-38.698-25.229-5.807-68.897 47.403-136.824 91.905-136.824 91.905s-15.524 9.674-44.636.967c-29.111-8.707-63.075-20.315-63.075-20.315S-.18 167.296 39.604 151.821H39.6z" stroke="#731C00" stroke-width="30.776"/></svg>
